X:3630
L:1/8
M:2/4
K:D
|: dfdf | (g/f/e/d/) (d/c/B/A/) | dfdf | aa a2 | dfdf | (g/f/e/d/) (d/c/B/A/) | Bgec | d2- d2 :: 
{cd} ecfd | geaf | B2 cd | (c/d/c/B/) A2 | ecfd | geaf | Gb (a/g/f/e/) | d2- d2 :: 
[M:2/2][K:G] d2 BG d2 BG | efge dBAG | d2 BG d2 BG | edcB TB2 A2 :: DGFG EGFG | DFAc | BGFG | 
 GBdg gedc | B2 TA2 G4 :|

